src/telerik-icons/solid/categorize.svg

<?xml version="1.0" encoding="utf-8"?>
<svg xmlns="http://www.w3.org/2000/svg" width="512" height="512" viewBox="0 0 512 512">
  <path d="M32 32v192l160-96L32 32zm0 448V288l160 96-160 96zM192 64h288v32H192V64zm0 96h288v32H192v-32zm0 160h288v32H192v-32zm0 96h288v32H192v-32z"/>
</svg>

<?xml version="1.0" encoding="utf-8"?>
<!-- Generator: Adobe Illustrator 24.2.0, SVG Export Plug-In . SVG Version: 6.00 Build 0)  -->
<svg xmlns="http://www.w3.org/2000/svg" width="512" height="512" viewBox="0 0 512 512">
<path d="M32,32v192l160-96L32,32z M32,480V288l160,96L32,480z M192,64h288v32H192V64z M192,160h288v32H192V160z
	 M192,320h288v32H192V320z M192,416h288v32H192V416z" />
</svg>
